X: 31123
T: Paddy Fahey's
R: reel
M: 4/4
K: Adorian
AB|:c3e d2 ed|cAAG EFGE|ABce d2ed|
cABG EAAB|(3cde ce d2ed|cAAG EFGE|
ABce d2ed|1 cABG A2AB:|2 cABG ABcd||
eaa2 eaca|eaba gedB|dggg dgBg|
dgba ^gedB|eaa2 eaca|eaba gef^g|
a2 ba ge (3f^ga|1 gedB ABcd:|2 gedB A2AB||

